X:89
T:The Convenience Reel
M:4/4
L:1/8
K:D
df f2 df f2|ecAg gece|df f2 dfed|1 cABc dAFA :|2 cABc defg ||
a3 g efge|Ae (3gfe Ae (3gfe|a^ga=g efge|Addc defg|
aA A2 aAaA|gA A2 gAgA|fgaf gbag|1faea [a4d4]:|2 faea [a3d3] c ||
dA A2 dA A2|GAFA EADA|dA A2 dA A2|FAEA D3 A :|
